icons/clock/clock-1.svg

<svg width="14" height="14" viewBox="0 0 14 14" fill="none"
    xmlns="http://www.w3.org/2000/svg">
    <circle cx="7" cy="7" r="4.5" stroke="green"/>
    <path d="M7 3.5C7.27614 3.5 7.5 3.72386 7.5 4V5.13379L7.56738 5.01758C7.70558 4.77878 8.011 4.69698 8.25 4.83496C8.4891 4.97301 8.5706 5.27845 8.43262 5.51758L7.43262 7.25C7.43054 7.25359 7.42696 7.25624 7.4248 7.25977C7.41448 7.27661 7.40281 7.29217 7.39062 7.30762C7.38137 7.3194 7.37243 7.33104 7.3623 7.3418C7.35022 7.3546 7.33661 7.36548 7.32324 7.37695C7.31265 7.38603 7.30322 7.3962 7.29199 7.4043C7.27694 7.41519 7.26039 7.42343 7.24414 7.43262C7.23174 7.4396 7.21993 7.44724 7.20703 7.45312C7.19278 7.45965 7.17802 7.46454 7.16309 7.46973C7.14657 7.47545 7.1303 7.48138 7.11328 7.48535C7.09918 7.48863 7.08484 7.49013 7.07031 7.49219C7.05211 7.4948 7.03408 7.49745 7.01562 7.49805C7.01042 7.49821 7.00525 7.5 7 7.5C6.98944 7.5 6.97914 7.49674 6.96875 7.49609C6.95308 7.49512 6.9375 7.49466 6.92188 7.49219C6.90282 7.48919 6.88448 7.48458 6.86621 7.47949C6.85315 7.47584 6.84002 7.47255 6.82715 7.46777C6.80714 7.46038 6.78824 7.45119 6.76953 7.44141C6.7633 7.43815 6.75615 7.43617 6.75 7.43262C6.74616 7.4304 6.74301 7.42711 6.73926 7.4248C6.72245 7.41447 6.70682 7.40282 6.69141 7.39062C6.67966 7.38137 6.66795 7.37244 6.65723 7.3623C6.64445 7.35022 6.63351 7.33661 6.62207 7.32324C6.61302 7.31266 6.6028 7.30321 6.59473 7.29199C6.58387 7.27695 6.57557 7.26037 6.56641 7.24414C6.55945 7.23176 6.55176 7.21992 6.5459 7.20703C6.5394 7.1928 6.53446 7.178 6.5293 7.16309C6.52359 7.14659 6.51763 7.13027 6.51367 7.11328C6.51041 7.09921 6.50888 7.08481 6.50684 7.07031C6.50423 7.05214 6.50157 7.03404 6.50098 7.01562C6.50082 7.01043 6.5 7.00523 6.5 7V4C6.5 3.72386 6.72386 3.5 7 3.5Z" fill="red"/>
</svg>

<svg xmlns="http://www.w3.org/2000/svg" width="14" height="14" fill="none" viewBox="0 0 14 14"><circle cx="7" cy="7" r="4.5" stroke="green"/><path fill="red" d="M7 3.5a.5.5 0 0 1 .5.5v1.134l.067-.116a.5.5 0 0 1 .866.5l-1 1.732-.008.01-.034.048-.029.034q-.018.018-.039.035-.015.015-.031.027-.023.016-.048.029l-.037.02q-.021.01-.044.017l-.05.015q-.02.005-.043.007l-.054.006L7 7.5l-.031-.004q-.024 0-.047-.004l-.056-.013q-.02-.004-.039-.011l-.057-.027-.02-.008-.01-.008-.049-.034-.034-.029q-.018-.018-.035-.039-.015-.015-.027-.031-.016-.023-.029-.048l-.02-.037q-.01-.021-.017-.044l-.015-.05q-.005-.02-.007-.043L6.5 7.016V4a.5.5 0 0 1 .5-.5"/></svg>
